public/images/armsman.svg

<?xml version="1.0" encoding="UTF-8" standalone="no"?>
<!-- Created with Inkscape (http://www.inkscape.org/) -->

<svg
   width="512"
   height="512"
   viewBox="0 0 135.46666 135.46666"
   version="1.1"
   id="svg1304"
   inkscape:version="1.1 (c68e22c387, 2021-05-23)"
   sodipodi:docname="armsman.svg"
   xmlns:inkscape="http://www.inkscape.org/namespaces/inkscape"
   xmlns:sodipodi="http://sodipodi.sourceforge.net/DTD/sodipodi-0.dtd"
   xmlns="http://www.w3.org/2000/svg"
   xmlns:svg="http://www.w3.org/2000/svg">
  <sodipodi:namedview
     id="namedview1306"
     pagecolor="#505050"
     bordercolor="#eeeeee"
     borderopacity="1"
     inkscape:pageshadow="0"
     inkscape:pageopacity="0"
     inkscape:pagecheckerboard="0"
     inkscape:document-units="px"
     showgrid="false"
     width="512mm"
     units="px"
     inkscape:zoom="0.97533267"
     inkscape:cx="270.16423"
     inkscape:cy="234.27904"
     inkscape:window-width="1920"
     inkscape:window-height="1017"
     inkscape:window-x="1912"
     inkscape:window-y="-8"
     inkscape:window-maximized="1"
     inkscape:current-layer="layer1" />
  <defs
     id="defs1301" />
  <g
     inkscape:label="Layer 1"
     inkscape:groupmode="layer"
     id="layer1">
    <path
       id="path1565"
       style="fill:#000000;stroke:none;stroke-width:0.636483px;stroke-linecap:butt;stroke-linejoin:miter;stroke-opacity:1"
       d="M 68.036781,34.022071 56.7111,52.498993 68.036781,71.138273 79.026568,52.498995 Z M 42.742023,41.615124 H 35.549261 L 2.3812499,68.983922 2.4881551,73.031564 11.504596,86.168982 h 4.079957 l 22.004682,-8.91077 13.203308,24.186378 h 34.455896 l 13.418369,-24.186381 21.682702,8.91077 h 3.97181 l 8.76409,-13.003163 V 68.983922 L 100.46438,41.615124 h -6.977699 l -25.4499,46.229597 z"
       sodipodi:nodetypes="ccccccccccccccccccccccc" />
  </g>
</svg>

<svg width="512" height="512" viewBox="0 0 135.467 135.467" xmlns="http://www.w3.org/2000/svg"><path style="fill:#000;stroke:none;stroke-width:.636483px;stroke-linecap:butt;stroke-linejoin:miter;stroke-opacity:1" d="M68.037 34.022 56.71 52.5l11.326 18.64 10.99-18.64zm-25.295 7.593h-7.193L2.381 68.984l.107 4.048 9.017 13.137h4.08l22.004-8.91 13.204 24.186h34.455l13.419-24.187 21.683 8.911h3.971l8.764-13.003v-4.182l-32.62-27.369h-6.978l-25.45 46.23z"/></svg>
